X:146
T:McMahon's
T:The Banshee
M:4/4
L:1/8
R:Reel
K:G
E|:~G3D EDEG|AGAB d2Bd|efge dBGA|BAGE EDDE|
 |GFGD EDED|AGAB d2Bd|efge dBGA|1BAGE D3 E:|2BAGE D3 d|
 |:eaag efge|dBBA B3 d|eB~B2 eBgB|eBBA B3 d|
 |eaag efge|dBBA ~B3 d|eged BAGA|1BAGE ED D d:|2BAGE ED DE|
